X:1
T:Hallelujah! Praise His Name
T:James Edwin McConnell, 1921
T:Hallelujah! Praise His Name
T:Public Domain
T:Public Domain
C:James Edwin McConnell, 1921
Z:Public Domain
%%score ( 1 2 ) ( 3 4 )
L:1/8
M:4/4
K:Bb
V:1 treble 
V:2 treble 
V:3 bass 
V:4 bass 
V:1
 [DF] | [DB][DB][DB][Ec] [Fd][Fd][Fc][FB] | %2
w: 1.~I|once was load- ed down with sin, but|
w: 2.~How|ma- ny times I stum- bled, bear- ing|
w: 3.~The|grace of God is flow- ing from the|
 [GB][GB][FA][EG] [DF]2 [DB]>[Dc] [EB]2 [EA]4 [Ec]>[Fd] | [Ec]2 [DB]4 [DF]2 | %4
w: Je- sus came a- long; Hal- le- lu- jah, hal- le-|lu- jah! Now|
w: such a hea- vy load; Hal- le- lu- jah, hal- le-|lu- jah! But|
w: cross of Cal- va- ry: Hal- le- lu- jah, hal- le-|lu- jah! I’m|
 [DB][DB][DB][Ec] [Fd][Fd][Fc][FB] | [GB][GB][FA][EG] [DF]2 [DB]>[Dc] | [EB]2 [EA]2 [Fd]2 [Ec]2 | %7
w: I am free and in my heart I|have a hap- py song; Hal- le-|lu- jah, praise His|
w: Je- sus took my bur- dens, led me|to the nar- row road; Hal- le-|lu- jah, praise His|
w: hap- py, for I know that there is|grace e- nough for me; Hal- le-|lu- jah, praise His|
 (D2 E2 D2) z2 ||"^Refrain" [Fd]3 [Fd] [Ge]2 [Fd]2 | [Fd][Ec][Ec][D=B] [Ec]4 | %10
w: name! * *|||
w: name! * *|le- lu- jah, praise|His ho- ly name! Hal-|
w: name! * *|||
 [Ec]3 [Ec] [Fd]2 [Ec][Ec] | [Dc][DB][DB][EG] [DF]3 [DF] | [Fd][Fd][Ge][Fd] [Ec] [EG]2 [EG] | %13
w: |||
w: le- lu- jah, He’s ev-|’ry day the same; My sins|are all for- giv- en, I’m on|
w: |||
 [Ec][Ec][Fd][Ec] [DB] [DF]2 [DF] | [EG][EA][GB][Gc] [Fd] [Ff]3 | [Fd]2 [Ec]2 [DB]6 |] %16
w: |||
w: my way to Heav- en, I’ll shout|His name for- ev- er: Praise|His name! *|
w: |||
V:2
 x | x8 | x16 | x8 | x8 | x8 | x8 | B6 x2 || x8 | x8 | x8 | x8 | x8 | x8 | x8 | x10 |] %16
w: ||||||||||||||||
w: |||||||Hal-|||||||||
V:3
 [B,,B,] | [B,,B,][B,,B,][B,,B,][B,,B,] [B,,B,][B,,B,][C,A,][D,B,] | %2
 [E,B,][E,B,][E,B,][E,B,] [B,,B,]2 [B,,F,]>[B,,F,] F,2 [F,C]4 [F,A,]>[F,A,] | %3
 [F,A,]2 [B,,B,]4 [B,,B,]2 | [B,,B,][B,,B,][B,,B,][B,,B,] [B,,B,][B,,B,][C,A,][D,B,] | %5
 [E,B,][E,B,][E,B,][E,B,] [B,,B,]2 [B,,F,]>[B,,F,] | F,2 F,2 [F,A,]2 [F,A,]2 | (B,2 G,2 F,2) z2 || %8
 [B,,B,]3 [B,,B,] [B,,B,]2 [B,,B,]2 | [F,A,][F,A,][F,A,][F,^G,] [F,A,]4 | %10
 [F,A,]3 [F,A,] [F,A,]2 [F,A,][F,A,] | [B,,B,][B,,B,][B,,B,][B,,B,] [B,,B,]3 [B,,B,] | %12
 [B,,B,][B,,B,][B,,B,][B,,B,] [E,G,] [E,C]2 [E,B,] | %13
 [F,A,][F,A,][F,A,][F,A,] [B,,B,] [B,,B,]2 [B,,B,] | [E,B,][E,B,][E,B,][E,B,] [F,B,] [D,B,]3 | %15
 [F,B,]2 [F,A,]2 [B,,B,]6 |] %16
V:4
 x | x8 | x8 F,2 x6 | x8 | x8 | x8 | F,2 F,2 x4 | B,,6 x2 || x8 | x8 | x8 | x8 | x8 | x8 | x8 | %15
 x10 |] %16

